!!!OTL: O du schöner Rosengarten (3-80), S. 223
!!!id: P1053
**kern
*clefG2
*k[f#]
*G:
{8d
8d
=1
4g
4d
8g
8a
=2
4b
4g}
=3
{8a
8b
=4
4cc
4b
8a
8g
=5
2a}
=6
{8a
8b
=7
8cc
8b
4a
8dd
8cc
=8
8b
8a
4g}
=9
{8d
8g
=10
4b
4a
8g
8f#
=11
2g}
==
*-
!!!minrhy: 8
!!!meters: 3/4 ]  ZZ[4
!!!cut: O du schöner Rosengarten (3-80), S. 223
!!!reg: Lothringen
!!!trd: PINCK, Louis: Verklingende Weisen, Bd3, Metz 1933
!!!rhy1: XX  X_X_XX  X_X_
!!!rhy2: XX  X_X_XX  X__
!!!key: P1053  08  G 3/4 ]  ZZ[4
!!!mod: SECHSTONSKALA DUR ?]  AMBITUS[8
!!!kad: 1211
!!!akz: 13_42_43_31_
!!!fot: 'a__b__c__bs"
!!!for: 'a__aw_b__aw_
!!!fok: '^a_^__^d_^a_
!! PHRAS[AUFTAKTIG]
!!!fkt: Liebe, Beischlaf
!! LOTH VKL
!! PR[42] 2K[2] 2G[9] 3K[3] 3G[2] 4A[2] 4Ü[0] 5A[0] 6K[0] 6G[2]
!! 7K[3] 7G[0] 8A[0] MEHR[0] SI[21] ABS[66] SR[11] SP[11]
!! ST[25] 2k[9] 2g[23] 3k[0] 3g[2] 4d[2] 4ü[0] 5d[2] 6k[0] 6g[0]
!! 7k[0] 7g[0] 8d[0] mehr[0] si[36] dm[-15] sr[32] sp[5]
!! 1F[4] 2F[13] 3F[54] 4F[10] LF[0] 2P[4] 3P[10] 4P[3] TRI[3] DF[7] AB[68]
!! TF[0] U3K[0] U3[0] U4[0] U4Ü[0] U5[9] U6K[0] U6[1] U7K[0] U7[1]
!! N1[16] N2K[0] N2[25] N3K[0] N3[25] N4[18] N4Ü[0] N5[3] N6K[0] N6[0]
!!!n7k: 0] N7[0] O1[0] O2K[0] O2[0] O3K[0] O3[0] HÖ[0
